assets/imgs/Booking_1-2.svg

<svg width="58" height="58" viewBox="0 0 58 58" fill="none" xmlns="http://www.w3.org/2000/svg">
<rect x="0.812988" y="0.865112" width="55.9734" height="55.9734" rx="27.9867" stroke="#D1D5DB" stroke-width="0.79962"/>
<path d="M39.2158 16.5027H36.696V16.3398C36.696 15.843 36.2931 15.4402 35.7964 15.4402C35.2996 15.4402 34.8968 15.843 34.8968 16.3398V16.5027H29.6993V16.3398C29.6993 15.843 29.2965 15.4402 28.7997 15.4402C28.3029 15.4402 27.9001 15.843 27.9001 16.3398V16.5027H22.7026V16.3398C22.7026 15.843 22.2998 15.4402 21.803 15.4402C21.3063 15.4402 20.9035 15.843 20.9035 16.3398V16.5027H18.3817C15.9128 16.5027 13.9048 18.5107 13.9048 20.9796V37.7876C13.9048 40.2564 15.9128 42.2644 18.3817 42.2644H39.2158C41.6846 42.2644 43.6926 40.2564 43.6926 37.7876V20.9786C43.6916 18.5097 41.6846 16.5027 39.2158 16.5027ZM28.7987 36.3043C25.2754 36.3043 22.4077 33.4376 22.4077 29.9143C22.4077 26.391 25.2744 23.5243 28.7987 23.5243C32.323 23.5243 35.1897 26.391 35.1897 29.9143C35.1897 33.4376 32.322 36.3043 28.7987 36.3043Z" fill="#C891C3"/>
<path d="M28.7983 25.3235C26.2675 25.3235 24.2075 27.3835 24.2075 29.9143C24.2075 32.4461 26.2675 34.5051 28.7983 34.5051C31.3291 34.5051 33.3892 32.4451 33.3892 29.9143C33.3892 27.3825 31.3291 25.3235 28.7983 25.3235ZM31.2302 29.6794L28.5495 31.8394C28.3895 31.9693 28.1896 32.0383 27.9857 32.0383C27.9517 32.0383 27.9178 32.0363 27.8828 32.0323C27.6449 32.0053 27.426 31.8834 27.2781 31.6945L26.2236 30.3511C25.9167 29.9603 25.9857 29.3946 26.3755 29.0877C26.7673 28.7798 27.331 28.8488 27.6389 29.2396L28.1307 29.8663L30.1017 28.2791C30.4885 27.9662 31.0563 28.0292 31.3671 28.415C31.678 28.8018 31.617 29.3686 31.2302 29.6794Z" fill="#C891C3"/>
</svg>

<svg xmlns="http://www.w3.org/2000/svg" width="58" height="58" fill="none"><rect width="55.973" height="55.973" x=".813" y=".865" stroke="#D1D5DB" stroke-width=".8" rx="27.987"/><path fill="#C891C3" d="M39.216 16.503h-2.52v-.163a.9.9 0 0 0-1.8 0v.163H29.7v-.163a.9.9 0 0 0-1.799 0v.163h-5.197v-.163a.9.9 0 0 0-1.8 0v.163h-2.521a4.48 4.48 0 0 0-4.477 4.477v16.808a4.48 4.48 0 0 0 4.477 4.476h20.834a4.48 4.48 0 0 0 4.477-4.476v-16.81a4.48 4.48 0 0 0-4.477-4.475M28.799 36.304a6.4 6.4 0 0 1-6.391-6.39 6.4 6.4 0 0 1 6.39-6.39 6.4 6.4 0 0 1 6.392 6.39 6.4 6.4 0 0 1-6.391 6.39"/><path fill="#C891C3" d="M28.798 25.324c-2.53 0-4.59 2.06-4.59 4.59 0 2.532 2.06 4.591 4.59 4.591 2.531 0 4.591-2.06 4.591-4.59 0-2.532-2.06-4.591-4.59-4.591m2.432 4.355-2.68 2.16a.9.9 0 0 1-.667.193.9.9 0 0 1-.605-.337l-1.054-1.344a.9.9 0 0 1 1.415-1.111l.492.626 1.97-1.587a.9.9 0 1 1 1.13 1.4"/></svg>
